X: 82
T: I Am Sitting
C: Teton Sioux band 1911-1914
N: Derived from sioux082.krn
O: South Dakota, U.S.A.
N: Teton Sioux Music by Frances Densmore, 1918
Z: transcribed to **kern format by Craig Sapp
L: 1/8
M: 4/8
Q: 1/4=58
K: Bb clef=bass
%%linebreak <none>
G,/ [I:setbarnb 1]| 
C C C C ||  
[M:3/8](C2B,/) B,/ ||  
[M:4/8]B, B, C C ||  
[M:3/8]C3 ||  
[M:4/8]C C E C ||  
[M:3/8](C2B,/) C/ ||  
[M:4/8]B, B, B, B, | 
G,4- ||  
[M:3/8]G,3 | 
B, B, B,/ B,/ ||  
[M:4/8]B,2B, G, | 
B,2B, (B,/ G,/) | 
(B,3-B,/ G,/) | 
G,3 |]  



